X:211
T:Duke of Perth
R:Reel
B:The Athole Collection
M:C|
L:1/8
K:G
B|G>B dB gBdB|gBdB aAAB|G>B dB gBdB|cAdc BGG:|
f|gage abaf|gage beef|gage abaf|gdec BGGf|gage abaf|
gage beef|gage abaf|gdec BGG||

